X:656
T: "Der Schlemmer"
N: Z1337
O: Europa, Mitteleuropa, Deutschland, Rhein
R: Zech -, Schalks - Lied
M: 4/4
L: 1/8
K: G
D2 | G4F2G2 | A4G2A2 | B2d2c2A2 | G4z2
GA | B2B2B2AB | c3dc2cB | A2AAA2B2 | d3ed2
d2 | G4z2B2 | A4z2GA | B2B2dcA2 | G4z2

@@@ Tune index: 10414
